modules/hawcons-stroke/icons/icon-89-inboxes.svg

<?xml version="1.0" encoding="UTF-8" standalone="no"?>
<svg width="32px" height="32px" viewBox="0 0 32 32" version="1.1" xmlns="http://www.w3.org/2000/svg" xmlns:xlink="http://www.w3.org/1999/xlink" xmlns:sketch="http://www.bohemiancoding.com/sketch/ns">
    <!-- Generator: Sketch 3.0.3 (7891) - http://www.bohemiancoding.com/sketch -->
    <title>icon 89 inboxes</title>
    <desc>Created with Sketch.</desc>
    <defs></defs>
    <g id="Page-1" stroke="none" stroke-width="1" fill="none" fill-rule="evenodd" sketch:type="MSPage">
        <g id="icon-89-inboxes" sketch:type="MSArtboardGroup" fill="#929292">
            <path d="M21,12 L27.7750244,12 L23.4000244,5 L9.59997559,5 L5.22497559,12 L12,12 L12,14.0020869 C12,15.1055038 12.8958578,16 13.9973917,16 L19.0026083,16 C20.1057373,16 21,15.1017394 21,14.0020869 L21,12 L21,12 Z M22,13 L28,13 L28,20 L5,20 L5,13 L11,13 L11,14.5 C11,15.8807119 12.1152735,17 13.4960703,17 L19.5039297,17 C20.8824713,17 22,15.8903379 22,14.5 L22,13 L22,13 L22,13 Z M29,20.5 L29,29 L4,29 L4,20.5 L4,12.5 L4,12 L9,4 L24,4 L29,12 L29,12.5 L29,20.5 L29,20.5 Z M12,21 L12,22.0020869 C12,23.1055038 12.8958578,24 13.9973917,24 L19.0026083,24 C20.1057373,24 21,23.1017394 21,22.0020869 L21,21 L12,21 L12,21 L12,21 Z M22,21 L28,21 L28,28 L5,28 L5,21 L11,21 L11,22.5 C11,23.8807119 12.1152735,25 13.4960703,25 L19.5039297,25 C20.8824713,25 22,23.8903379 22,22.5 L22,21 L22,21 L22,21 Z" id="inboxes" sketch:type="MSShapeGroup"></path>
        </g>
    </g>
</svg>

<svg width="32" height="32" xmlns="http://www.w3.org/2000/svg"><path d="M21 12h6.775L23.4 5H9.6l-4.375 7H12v2.002c0 1.104.896 1.998 1.997 1.998h5.006A2 2 0 0 0 21 14.002V12zm1 1h6v7H5v-7h6v1.5c0 1.38 1.115 2.5 2.496 2.5h6.008A2.492 2.492 0 0 0 22 14.5V13zm7 7.5V29H4V12l5-8h15l5 8v8.5zM12 21v1.002c0 1.104.896 1.998 1.997 1.998h5.006A2 2 0 0 0 21 22.002V21h-9zm10 0h6v7H5v-7h6v1.5c0 1.38 1.115 2.5 2.496 2.5h6.008A2.492 2.492 0 0 0 22 22.5V21z" fill="#929292" fill-rule="evenodd"/></svg>
